public/flags/sct.svg

<?xml version="1.0" encoding="utf-8"?>
<!-- Uploaded to: SVG Repo, www.svgrepo.com, Generator: SVG Repo Mixer Tools -->
<svg width="800px" height="800px" viewBox="0 -4 28 28" fill="none" xmlns="http://www.w3.org/2000/svg">
<g clip-path="url(#clip0_1310_7612)">
<path d="M27.9999 -3.05176e-05H-6.10352e-05V20H27.9999V-3.05176e-05Z" fill="url(#paint0_linear_1310_7612)"/>
<path d="M28.0003 -0.00360107H0.000305176V19.9964H28.0003V-0.00360107Z" fill="url(#paint1_linear_1310_7612)"/>
<path fill-rule="evenodd" clip-rule="evenodd" d="M14.0003 8.38814L-1.28213 -1.92001L-2.77332 0.290753L11.6159 9.99643L-2.77332 19.7021L-1.28213 21.9129L14.0003 11.6047L29.2828 21.9129L30.774 19.7021L16.3847 9.99643L30.774 0.290753L29.2828 -1.92001L14.0003 8.38814Z" fill="url(#paint2_linear_1310_7612)"/>
</g>
<defs>
<linearGradient id="paint0_linear_1310_7612" x1="13.9999" y1="-3.05176e-05" x2="13.9999" y2="20" gradientUnits="userSpaceOnUse">
<stop stop-color="white"/>
<stop offset="1" stop-color="#F0F0F0"/>
</linearGradient>
<linearGradient id="paint1_linear_1310_7612" x1="14.0003" y1="-0.00360107" x2="14.0003" y2="19.9964" gradientUnits="userSpaceOnUse">
<stop stop-color="#1479D0"/>
<stop offset="1" stop-color="#0A68BA"/>
</linearGradient>
<linearGradient id="paint2_linear_1310_7612" x1="14.0003" y1="-1.92001" x2="14.0003" y2="21.9129" gradientUnits="userSpaceOnUse">
<stop stop-color="white"/>
<stop offset="1" stop-color="#F0F0F0"/>
</linearGradient>
<clipPath id="clip0_1310_7612">
<rect width="28" height="20" rx="2" fill="white"/>
</clipPath>
</defs>
</svg>

<svg xmlns="http://www.w3.org/2000/svg" width="800" height="800" fill="none" viewBox="0 -4 28 28"><g clip-path="url(#a)"><path fill="url(#b)" d="M28 0H0v20h28z"/><path fill="url(#c)" d="M28-.004H0v20h28z"/><path fill="url(#d)" fill-rule="evenodd" d="M14 8.388-1.282-1.92-2.773.29l14.389 9.706-14.39 9.706 1.492 2.21L14 11.606l15.283 10.308 1.491-2.21-14.39-9.707L30.775.291 29.283-1.92z" clip-rule="evenodd"/></g><defs><linearGradient id="b" x1="14" x2="14" y1="0" y2="20" gradientUnits="userSpaceOnUse"><stop stop-color="#fff"/><stop offset="1" stop-color="#f0f0f0"/></linearGradient><linearGradient id="c" x1="14" x2="14" y1="-.004" y2="19.996" gradientUnits="userSpaceOnUse"><stop stop-color="#1479d0"/><stop offset="1" stop-color="#0a68ba"/></linearGradient><linearGradient id="d" x1="14" x2="14" y1="-1.92" y2="21.913" gradientUnits="userSpaceOnUse"><stop stop-color="#fff"/><stop offset="1" stop-color="#f0f0f0"/></linearGradient><clipPath id="a"><rect width="28" height="20" fill="#fff" rx="2"/></clipPath></defs></svg>
